; generated by Slic3r 1.1.7 on 2014-09-19 at 15:44:55

; perimeters extrusion width = 0.46mm
; infill extrusion width = 0.56mm
; solid infill extrusion width = 0.56mm
; top infill extrusion width = 0.56mm

G21 ; set units to millimeters
M107
G28 ; home all axes
G1 Z5 F5000; Raise nozzle
M109 S199; Heat to first layer temp
G1 F5000 X210 Y210 Z1; Move print head to center and lower to first layer height
G90 ; use absolute coordinates
G92 E0
M82 ; use absolute distances for extrusion
G1 F1200.000 E-1.00000
G92 E0
G1 Z0.280 F6600.000
G1 X199.585 Y210.667 F6600.000
G1 E1.00000 F1200.000
G1 X201.346 Y209.136 E1.11643 F1336.628
G1 X203.518 Y208.283 E1.23286
G1 X204.900 Y208.143 E1.30214
G1 X205.100 Y208.143 E1.31212
G1 X207.400 Y208.540 E1.42855
G1 X209.433 Y209.685 E1.54498 F1336.628
G1 X210.964 Y211.446 E1.66140
G1 X211.817 Y213.618 E1.77783
G1 X211.957 Y215.000 E1.84712
G1 X211.957 Y225.000 E2.34604
G1 X211.560 Y227.300 E2.46246
G1 X210.415 Y229.333 E2.57889
G1 X208.654 Y230.864 E2.69532
G1 X206.482 Y231.717 E2.81175
G1 X205.100 Y231.857 E2.88103
G1 X204.900 Y231.857 E2.89101
G1 X202.600 Y231.460 E3.00744
G1 X200.567 Y230.315 E3.12387
G1 X199.036 Y228.554 E3.24030
G1 X198.183 Y226.382 E3.35672
G1 X198.043 Y225.000 E3.42601
G1 X198.043 Y215.000 E3.92493
G1 X198.440 Y212.700 E4.04136
G1 X199.551 Y210.727 E4.15434
G1 X199.971 Y210.893 F6600.000
G1 X200.010 Y210.827 E4.15817 F1336.628
G1 X201.755 Y209.393 E4.27088
G1 X204.900 Y208.571 E4.43303
G1 X205.100 Y208.571 E4.44301
G1 X207.324 Y208.968 E4.55571
G1 X209.273 Y210.110 E4.66841 F1336.628
G1 X210.707 Y211.855 E4.78112
G1 X211.529 Y215.000 E4.94327
G1 X211.529 Y225.000 E5.44219
G1 X211.132 Y227.224 E5.55489
G1 X209.990 Y229.173 E5.66759
G1 X208.245 Y230.607 E5.78030
G1 X205.100 Y231.429 E5.94245
G1 X204.900 Y231.429 E5.95243
G1 X202.676 Y231.032 E6.06513
G1 X200.727 Y229.890 E6.17784
G1 X199.293 Y228.145 E6.29054
G1 X198.471 Y225.000 E6.45269
G1 X198.471 Y215.000 E6.95161
G1 X198.868 Y212.776 E7.06431
G1 X199.936 Y210.953 E7.16974
G1 F1200.000 E6.16974
G92 E0
G1 X205.000 Y225.000 F6600.000
G1 E1.00000 F1200.000
M204 S700
G1 X205.000 Y215.000 E1.49892 F1336.628
M204 S700
G1 F1200.000 E0.49892
G92 E0
M104 S0 ; turn off temperature
G28 X0  ; home X axis
G28 Y0  ; home X axis
M84     ; disable motors
; filament used = 6.7mm (0.0cm3)

; avoid_crossing_perimeters = 0
; bed_size = 410,400
; bed_temperature = 0
; bridge_acceleration = 700
; bridge_fan_speed = 65
; bridge_flow_ratio = 1
; brim_width = 0
; complete_objects = 0
; cooling = 1
; default_acceleration = 700
; disable_fan_first_layers = 2
; duplicate_distance = 6
; end_gcode = M104 S0 ; turn off temperature\nG28 X0  ; home X axis\nG28 Y0  ; home X axis\nM84     ; disable motors
; external_perimeters_first = 0
; extruder_clearance_height = 20
; extruder_clearance_radius = 20
; extruder_offset = 0x0
; extrusion_axis = E
; extrusion_multiplier = 1
; fan_always_on = 1
; fan_below_layer_time = 30
; filament_diameter = 1.75
; first_layer_acceleration = 0
; first_layer_bed_temperature = 0
; first_layer_extrusion_width = 150%
; first_layer_speed = 50%
; first_layer_temperature = 199
; g0 = 0
; gcode_arcs = 0
; gcode_comments = 0
; gcode_flavor = reprap
; infill_acceleration = 700
; infill_first = 0
; layer_gcode = 
; max_fan_speed = 90
; min_fan_speed = 80
; min_print_speed = 10
; min_skirt_length = 0
; notes = 
; nozzle_diameter = 0.46
; only_retract_when_crossing_perimeters = 0
; ooze_prevention = 0
; output_filename_format = [input_filename_base].gcode
; perimeter_acceleration = 700
; post_process = 
; print_center = 205,220
; resolution = 0
; retract_before_travel = 1
; retract_layer_change = 1
; retract_length = 1
; retract_length_toolchange = 3
; retract_lift = 0
; retract_restart_extra = 0
; retract_restart_extra_toolchange = 0
; retract_speed = 20
; skirt_distance = 6
; skirt_height = 1
; skirts = 2
; slowdown_below_layer_time = 6
; spiral_vase = 0
; standby_temperature_delta = -5
; start_gcode = G28 ; home all axes\nG1 Z5 F5000; Raise nozzle\nM109 S[first_layer_temperature]; Heat to first layer temp\nG1 F5000 X210 Y210 Z1; Move print head to center and lower to first layer height
; temperature = 208
; threads = 7
; toolchange_gcode = 
; travel_speed = 110
; use_firmware_retraction = 0
; use_relative_e_distances = 0
; vibration_limit = 0
; wipe = 0
; z_offset = 0
; dont_support_bridges = 1
; extrusion_width = 0
; first_layer_height = 0.28
; infill_only_where_needed = 0
; interface_shells = 0
; layer_height = 0.31
; raft_layers = 0
; seam_position = aligned
; support_material = 0
; support_material_angle = 0
; support_material_enforce_layers = 0
; support_material_extruder = 1
; support_material_extrusion_width = 0
; support_material_interface_extruder = 1
; support_material_interface_layers = 0
; support_material_interface_spacing = 0
; support_material_interface_speed = 100%
; support_material_pattern = rectilinear
; support_material_spacing = 2.5
; support_material_speed = 85
; support_material_threshold = 45
; bottom_solid_layers = 2
; bridge_speed = 85
; external_perimeter_speed = 85
; extra_perimeters = 1
; fill_angle = 45
; fill_density = 20%
; fill_pattern = rectilinear
; gap_fill_speed = 15
; infill_every_layers = 1
; infill_extruder = 1
; infill_extrusion_width = 0
; infill_speed = 85
; overhangs = 1
; perimeter_extruder = 1
; perimeter_extrusion_width = 0
; perimeter_speed = 85
; perimeters = 2
; small_perimeter_speed = 65
; solid_fill_pattern = rectilinear
; solid_infill_below_area = 5
; solid_infill_every_layers = 0
; solid_infill_extrusion_width = 0
; solid_infill_speed = 85
; thin_walls = 1
; top_infill_extrusion_width = 0
; top_solid_infill_speed = 85
; top_solid_layers = 3
